src/Pure/16/symbolic/actions/cigarette-symbolic.svg

<?xml version="1.0" encoding="UTF-8" standalone="no"?>
<svg
   width="16px"
   height="16px"
   version="1.1"
   id="svg1"
   sodipodi:docname="cigarette-symbolic.svg"
   inkscape:version="1.4.2 (ebf0e940d0, 2025-05-08)"
   xmlns:inkscape="http://www.inkscape.org/namespaces/inkscape"
   xmlns:sodipodi="http://sodipodi.sourceforge.net/DTD/sodipodi-0.dtd"
   xmlns="http://www.w3.org/2000/svg"
   xmlns:svg="http://www.w3.org/2000/svg">
  <defs
     id="defs1">
    <style
       id="current-color-scheme"
       type="text/css">
        .ColorScheme-Text { color:#363636; }
     </style>
  </defs>
  <sodipodi:namedview
     id="namedview1"
     pagecolor="#ffffff"
     bordercolor="#000000"
     borderopacity="0.25"
     inkscape:showpageshadow="2"
     inkscape:pageopacity="0.0"
     inkscape:pagecheckerboard="0"
     inkscape:deskcolor="#d1d1d1"
     inkscape:zoom="49.6875"
     inkscape:cx="8"
     inkscape:cy="8"
     inkscape:window-width="1920"
     inkscape:window-height="1010"
     inkscape:window-x="0"
     inkscape:window-y="0"
     inkscape:window-maximized="1"
     inkscape:current-layer="svg1" />
  <path
     id="path1"
     d="M 3 0 A 5 5 0 0 0 8 5 L 11 5 A 1 1 0 0 1 11.101562 5.0058594 A 1 1 0 0 1 11.136719 5.0097656 C 11.144619 5.0108456 11.152336 5.0124119 11.160156 5.0136719 C 11.194286 5.0191619 11.228859 5.0263223 11.261719 5.0351562 A 1 1 0 0 1 11.269531 5.0371094 L 11.271484 5.0371094 C 11.292674 5.0430294 11.313394 5.0513438 11.333984 5.0585938 C 11.352894 5.0652538 11.372255 5.070382 11.390625 5.078125 A 1 1 0 0 1 11.398438 5.0820312 A 1 1 0 0 1 11.476562 5.1210938 C 11.483662 5.1249638 11.491007 5.1287735 11.498047 5.1328125 A 1 1 0 0 1 11.519531 5.1464844 C 11.538811 5.1582084 11.557792 5.1706307 11.576172 5.1835938 A 1 1 0 0 1 11.630859 5.2246094 L 11.632812 5.2265625 L 11.634766 5.2265625 L 11.636719 5.2285156 A 1 1 0 0 1 11.681641 5.2695312 L 11.683594 5.2714844 A 1 1 0 0 1 11.730469 5.3183594 C 11.744369 5.3332614 11.758514 5.3475453 11.771484 5.3632812 A 1 1 0 0 1 11.816406 5.4238281 C 11.829366 5.4422121 11.841796 5.4611918 11.853516 5.4804688 A 1 1 0 0 1 11.867188 5.5019531 C 11.871187 5.5089831 11.875086 5.5163005 11.878906 5.5234375 A 1 1 0 0 1 11.917969 5.6015625 C 11.919169 5.6042725 11.920775 5.606655 11.921875 5.609375 A 1 1 0 0 1 11.941406 5.6660156 C 11.948706 5.6866066 11.956971 5.7073236 11.962891 5.7285156 A 1 1 0 0 1 11.962891 5.7304688 C 11.963593 5.7329988 11.964144 5.7357412 11.964844 5.7382812 C 11.973644 5.7711422 11.980838 5.8057178 11.986328 5.8398438 A 1 1 0 0 1 11.990234 5.8632812 C 11.991834 5.8750053 11.992941 5.8865855 11.994141 5.8984375 A 1 1 0 0 1 12 6 L 12 7 L 13 7 L 13 6 A 2 2 0 0 0 11 4 L 8 4 A 4 4 0 0 1 4 0 L 3 0 z M 5 0 A 3 3 0 0 0 8 3 L 11 3 A 3 3 0 0 1 14 6 L 14 7 L 15 7 L 15 6 A 4 4 0 0 0 11 2 L 8 2 A 2 2 0 0 1 6 0 L 5 0 z M 12 8 L 12 12 L 14 12 C 14.554 12 15 11.554 15 11 L 15 9 C 15 8.446 14.554 8 14 8 L 13 8 L 12 8 z M 0 8.0117188 L 0 12.011719 L 11 12.011719 L 11 11 L 1 11 L 1 9 L 11 9 L 11 8.0117188 L 0 8.0117188 z "
     style="fill:currentColor;opacity:1"
     class="ColorScheme-Text" />
</svg>

<svg width="16px" height="16px" version="1.1">
<path d="m3 0a5 5 0 0 0 5 5h3a1 1 0 0 1 0.10156 0.0058594 1 1 0 0 1 0.035157 0.0039062c0.007874 0.001077 0.015624 0.0026484 0.023437 0.0039063 0.034129 0.0054941 0.068702 0.01265 0.10156 0.021484a1 1 0 0 1 0.007812 0.0019532h0.001953c0.021192 0.0059201 0.04191 0.014234 0.0625 0.021484 0.018915 0.0066603 0.038273 0.011788 0.056641 0.019531a1 1 0 0 1 0.007813 0.0039062 1 1 0 0 1 0.078124 0.039063c0.00714 0.0038676 0.014455 0.0076837 0.021485 0.011719a1 1 0 0 1 0.021484 0.013672c0.019276 0.011724 0.038257 0.024146 0.056641 0.037109a1 1 0 0 1 0.054687 0.041016c0.001815 0.0014751 0.004056 0.0024186 0.00586 0.0039062a1 1 0 0 1 0.044922 0.041016l0.001953 0.0019532a1 1 0 0 1 0.046875 0.046875c0.013902 0.014902 0.028039 0.029186 0.041015 0.044922a1 1 0 0 1 0.044922 0.060547c0.012963 0.018384 0.025386 0.037364 0.03711 0.056641a1 1 0 0 1 0.013672 0.021484c0.00403 0.0070302 0.007851 0.014347 0.011718 0.021484a1 1 0 0 1 0.039063 0.078125c0.00117 0.0027084 0.002759 0.0050916 0.003906 0.0078125a1 1 0 0 1 0.019531 0.056641c0.007251 0.020591 0.015564 0.041308 0.021485 0.0625a1 1 0 0 1 0 0.0019532c7.02e-4 0.0025333 0.001269 0.0052708 0.001953 0.0078124 0.008834 0.032861 0.01599 0.067434 0.021484 0.10156a1 1 0 0 1 0.003906 0.023437c0.001604 0.011724 0.00271 0.023304 0.003907 0.035156a1 1 0 0 1 0.005859 0.10156v1h0.72852 0.27148v-1a2 2 0 0 0-2-2h-3a4 4 0 0 1-4-4h-1zm2 0a3 3 0 0 0 3 3h3a3 3 0 0 1 3 3v1h1v-1a4 4 0 0 0-4-4h-3a2 2 0 0 1-2-2h-1zm7 8v1 2 1h1 1c0.554 0 1-0.446 1-1v-2c0-0.554-0.446-1-1-1h-1-1zm-12 0.011719v4h11v-1.0117h-10v-2h10v-0.98828h-11z" fill="#363636"/>
</svg>
